X: 39666
T: Tennessee Wagoner
R: reel
M: 4/4
K: Gmajor
gf|:ec2B c2cB|cdef g2BA|G2GA BAGF|GABc d2gf|
ec2B c2cB|cdef g2ef|gfga gfed|1 ec2B c2gf:|2 ec2B c4||
|:C3,D E2G2|cBcd cAGE|[G4,D] [G,4D]|DEGA BAGE|
C3,D E2G2|cBcd edef|gfga gfed|ec2B c2c2:|

